icons/1_Primary/Delinea.svg

<svg xmlns="http://www.w3.org/2000/svg" width="1024" height="1024" fill="none">
   <g clip-path="url(#a)">
      <path fill="#98DC9A" d="M512 1024c282.77 0 512-229.23 512-512S794.77 0 512 0 0 229.23 0 512s229.23 512 512 512Z"/>
      <path fill="#fff" d="M193.78 563.6h-26.52V457.17h26.46V563.6h.06Zm220.5-26.6h-84.37c1.83 18 11.4 30 30.09 30 12.74 0 22.19-5.73 27.31-16.64l25.66 7.8c-9.08 21.46-29.44 33.22-51.45 33.22-36 0-59.5-25.24-59.5-60.23 0-39.81 25.12-62.85 58-62.85 38.04-.04 57.06 29.1 54.26 68.7Zm-26.4-19.63c-2-16.89-9.57-26.34-26.82-26.34s-27.37 8.53-30.54 26.34h57.36ZM745.79 537h-84.37c1.83 18 11.4 29.93 30.05 29.93 12.74 0 22.19-5.73 27.31-16.64l25.66 7.8c-9.08 21.49-29.44 33.25-51.44 33.25-36 0-59.5-25.24-59.5-60.23 0-39.81 25.12-62.85 58-62.85 38.07 0 57.09 29.14 54.29 68.74Zm-26.4-19.63c-2-16.89-9.57-26.34-26.82-26.34S665.2 499.59 662 517.4l57.39-.03Zm-293.47 70.74h26V432.66h-26v155.45Zm44.93 0h26V471.49h-26v116.62Zm0-128.2h26v-27.25h-26v27.25ZM577 468.26c-15.3 0-28.1 5.91-38.1 19v-15.77h-23.18V588h26.34v-59.81c0-19.93 7.38-35.54 27.31-35.54 21.58 0 27.19 17.92 27.19 39.32V588h26.34v-65c-.01-28.34-11.35-54.74-45.9-54.74Zm279.69 48.28v71.57h-22.8v-15.73c-10.55 13.9-23.53 19-41 19-25.12 0-39.08-15.85-39.08-35.17 0-17.92 9.14-29 26.58-34.87 15.18-4.82 34.38-7 50.72-9.45-1.1-14.69-9.21-19.63-23.84-19.63-9.33 0-21.89 3.84-25.48 16.28l-23.77-7.44a44.288 44.288 0 0 1 16.46-23.71c8.106-6 19.02-9 32.74-9 36.82 0 47.31 20.42 48.71 34.32.568 4.588.838 9.207.81 13.83h-.05Zm-25.79 16.58c-8.6 1.34-17.31 2.74-26.64 4.57-11.52 2.32-24.81 6.28-24.81 18 0 7.86 5.73 14.81 18.78 14.81 19.2 0 31.7-12.86 32.43-30.72.17-2.45.29-6.66.29-6.66h-.05ZM224.57 432.66h-30.79v24.51s13.78-.06 23.1 0c7.5.06 11.83 0 17.13 1.16 22.8 4.33 31.46 28.71 31.46 52.06s-8.66 47.67-31.46 52.06c-5.24 1.16-9.63 1.16-17.13 1.16-9.39.06-23.1 0-23.1 0v24.51h30.79c50.41 0 68.4-41.33 68.4-77.73 0-36.4-18.05-77.73-68.4-77.73Z"/>
   </g>
   <defs>
      <clipPath id="a">
         <path fill="#fff" d="M0 0h1024v1024H0z"/>
      </clipPath>
   </defs>
</svg>

<svg width="1024" height="1024" viewBox="0 0 1024 1024" fill="none" xmlns="http://www.w3.org/2000/svg">
<g clip-path="url(#clip0_2_1974)">
<path d="M512 1024C794.77 1024 1024 794.77 1024 512C1024 229.23 794.77 0 512 0C229.23 0 0 229.23 0 512C0 794.77 229.23 1024 512 1024Z" fill="#98DC9A"/>
<path d="M193.78 563.6H167.26V457.17H193.72V563.6H193.78ZM414.28 537H329.91C331.74 555 341.31 567 360 567C372.74 567 382.19 561.27 387.31 550.36L412.97 558.16C403.89 579.62 383.53 591.38 361.52 591.38C325.52 591.38 302.02 566.14 302.02 531.15C302.02 491.34 327.14 468.3 360.02 468.3C398.06 468.26 417.08 497.4 414.28 537ZM387.88 517.37C385.88 500.48 378.31 491.03 361.06 491.03C343.81 491.03 333.69 499.56 330.52 517.37H387.88ZM745.79 537H661.42C663.25 555 672.82 566.93 691.47 566.93C704.21 566.93 713.66 561.2 718.78 550.29L744.44 558.09C735.36 579.58 715 591.34 693 591.34C657 591.34 633.5 566.1 633.5 531.11C633.5 491.3 658.62 468.26 691.5 468.26C729.57 468.26 748.59 497.4 745.79 537ZM719.39 517.37C717.39 500.48 709.82 491.03 692.57 491.03C675.32 491.03 665.2 499.59 662 517.4L719.39 517.37ZM425.92 588.11H451.92V432.66H425.92V588.11ZM470.85 588.11H496.85V471.49H470.85V588.11ZM470.85 459.91H496.85V432.66H470.85V459.91ZM577 468.26C561.7 468.26 548.9 474.17 538.9 487.26V471.49H515.72V588H542.06V528.19C542.06 508.26 549.44 492.65 569.37 492.65C590.95 492.65 596.56 510.57 596.56 531.97V588H622.9V523C622.89 494.66 611.55 468.26 577 468.26ZM856.69 516.54V588.11H833.89V572.38C823.34 586.28 810.36 591.38 792.89 591.38C767.77 591.38 753.81 575.53 753.81 556.21C753.81 538.29 762.95 527.21 780.39 521.34C795.57 516.52 814.77 514.34 831.11 511.89C830.01 497.2 821.9 492.26 807.27 492.26C797.94 492.26 785.38 496.1 781.79 508.54L758.02 501.1C760.705 491.581 766.499 483.234 774.48 477.39C782.586 471.39 793.5 468.39 807.22 468.39C844.04 468.39 854.53 488.81 855.93 502.71C856.498 507.298 856.768 511.917 856.74 516.54H856.69ZM830.9 533.12C822.3 534.46 813.59 535.86 804.26 537.69C792.74 540.01 779.45 543.97 779.45 555.69C779.45 563.55 785.18 570.5 798.23 570.5C817.43 570.5 829.93 557.64 830.66 539.78C830.83 537.33 830.95 533.12 830.95 533.12H830.9ZM224.57 432.66H193.78V457.17C193.78 457.17 207.56 457.11 216.88 457.17C224.38 457.23 228.71 457.17 234.01 458.33C256.81 462.66 265.47 487.04 265.47 510.39C265.47 533.74 256.81 558.06 234.01 562.45C228.77 563.61 224.38 563.61 216.88 563.61C207.49 563.67 193.78 563.61 193.78 563.61V588.12H224.57C274.98 588.12 292.97 546.79 292.97 510.39C292.97 473.99 274.92 432.66 224.57 432.66Z" fill="white"/>
</g>
<defs>
<clipPath id="clip0_2_1974">
<rect width="1024" height="1024" fill="white"/>
</clipPath>
</defs>
</svg>
